docs/assets/images/svg/icon-unload.svg

<svg width="23" height="20" viewBox="0 0 23 20" fill="none" xmlns="http://www.w3.org/2000/svg">
<path d="M20.3162 6.88979C20.3162 6.8598 20.3162 6.82982 20.3162 6.79983C20.3179 3.04614 17.4012 0.00174992 13.8016 7.90845e-07C11.6122 -0.00109866 9.5685 1.14423 8.36125 3.04889C5.94827 2.20896 3.33918 3.56788 2.53372 6.08414C2.37735 6.57274 2.29731 7.08434 2.29674 7.59944C2.29674 7.63342 2.29674 7.6678 2.29674 7.70218C0.657206 8.14631 -0.326628 9.89235 0.0992739 11.602C0.450078 13.0103 1.66821 13.9942 3.06352 13.9963L7.18862 13.9839C7.40034 13.9839 7.6439 13.8173 7.6439 13.5965C7.6439 13.3757 7.40034 13.1967 7.18862 13.1967H3.06352C1.7931 13.1888 0.769349 12.1085 0.776873 10.7837C0.78363 9.59595 1.62288 8.59224 2.75029 8.42343C2.95311 8.39499 3.09875 8.20544 3.08116 7.99284C3.07081 7.8641 3.06352 7.73177 3.06352 7.59944C3.06626 5.38853 4.78721 3.59852 6.90737 3.60137C7.41014 3.60202 7.90788 3.70572 8.37236 3.90647C8.54839 3.98273 8.75145 3.91256 8.84892 3.74175C10.4661 0.891159 13.9931 -0.0525733 16.7267 1.63379C18.4776 2.71396 19.551 4.67838 19.5494 6.79983C19.5494 6.93217 19.546 7.0605 19.5356 7.18924C19.5178 7.40433 19.667 7.59529 19.8726 7.62063C21.3436 7.81043 22.3885 9.20779 22.2065 10.7417C22.0404 12.1412 20.9017 13.1933 19.5494 13.1967C18.065 13.1986 16.5805 13.1967 15.0961 13.1967C14.8844 13.1967 14.6648 13.3757 14.6648 13.5965C14.6648 13.8173 14.8844 13.9839 15.0961 13.9839C16.4184 13.9879 19.5494 13.9963 19.5494 13.9963C21.4551 13.9963 23 12.3854 23 10.3981C23 8.71888 21.8862 7.2629 20.3162 6.88979Z" fill="#161615"/>
<path d="M14.669 16.0415L12.0364 18.6741V7.77122C12.0364 7.55672 11.8625 7.38281 11.648 7.38281C11.4335 7.38281 11.2596 7.55672 11.2596 7.77122V18.6741L8.62697 16.0415C8.47268 15.8925 8.22682 15.8967 8.07777 16.051C7.93241 16.2015 7.93241 16.4401 8.07777 16.5907L11.3734 19.8863C11.525 20.0379 11.7709 20.0379 11.9226 19.8863L15.2182 16.5907C15.3672 16.4364 15.363 16.1906 15.2087 16.0415C15.0582 15.8961 14.8195 15.8961 14.669 16.0415Z" fill="#161615"/>
</svg>

<svg width="23" height="20" fill="none" xmlns="http://www.w3.org/2000/svg"><path d="M20.316 6.89V6.8c.002-3.754-2.915-6.798-6.514-6.8-2.19-.001-4.233 1.144-5.44 3.049-2.414-.84-5.023.519-5.828 3.035-.157.489-.237 1-.237 1.515v.103c-1.64.444-2.624 2.19-2.198 3.9.351 1.408 1.57 2.392 2.965 2.394l4.125-.012c.211 0 .455-.167.455-.387 0-.221-.244-.4-.455-.4H3.064c-1.27-.008-2.295-1.088-2.287-2.413.007-1.188.846-2.192 1.973-2.36a.396.396 0 00.331-.431 4.925 4.925 0 01-.017-.394c.002-2.21 1.723-4 3.843-3.998.503.001 1 .105 1.465.305.176.077.38.007.477-.164 1.617-2.85 5.144-3.795 7.878-2.108 1.75 1.08 2.824 3.044 2.822 5.166 0 .132-.003.26-.013.39a.396.396 0 00.337.43c1.47.19 2.515 1.588 2.333 3.122-.166 1.4-1.304 2.451-2.657 2.455-1.484.002-2.968 0-4.453 0-.212 0-.431.179-.431.4 0 .22.22.387.431.387l4.453.012c1.906 0 3.451-1.61 3.451-3.598 0-1.68-1.114-3.135-2.684-3.508z" fill="#161615"/><path d="M14.669 16.041l-2.633 2.633V7.771a.388.388 0 00-.776 0v10.903l-2.633-2.633a.388.388 0 00-.55.55l3.296 3.295a.388.388 0 00.55 0l3.295-3.295a.388.388 0 00-.549-.55z" fill="#161615"/></svg>
